X:0
T:The Banks of Spey
G:strathspey
C:William Marshall
M:4/4
L:1/8
Q:1/4=120
K:ADor
% dorian/minor hexatonic
A2 A>B A>Bc>e|d<cB>A G2G2|A2 A>B A>Bc>d|e>cde   g2g2 |
a>ge>c d<eg<a|e<gg>B G2GB|A<EA>B c>de>g|e<dc>B  A2Ac||
A<EA>c A<EA>c|B>cdB  G2GB|A<EA>c A<Ec>d|e>cde   g2g2 |
a>ge<c dega  |e<gg>B G2GB|A<EA>B c>de<g|e<dcc>B A2A2|]

